dist/img/icons/group111.svg

<svg width="218" height="59" viewBox="0 0 218 59" fill="none" xmlns="http://www.w3.org/2000/svg">
<path d="M17.9567 56.3024L11.9975 45.9807L20.743 30.8745L26.3004 40.501L59.1069 40.4833L49.7979 56.4449L17.9567 56.3024Z" fill="#FFAD64"/>
<path d="M64.9648 30.2346L59.0056 40.5562L41.5506 40.5356L47.1086 30.9094L30.6901 2.50696L49.1677 2.58803L64.9648 30.2346Z" fill="#ADD4D3"/>
<path d="M18.8748 2.45129H30.7931L39.5028 17.5783L28.3871 17.5779L11.9993 45.998L2.8306 29.9554L18.8748 2.45129Z" fill="#FB8351"/>
<path fill-rule="evenodd" clip-rule="evenodd" d="M32.2463 0.0616566L32.2108 0H17.4668L0 29.9431L11.99 50.9223L12.0047 50.8969L16.5374 58.7478L51.2023 58.9029L63.3759 38.0295H63.2949L67.792 30.2404L50.5939 0.142154L32.2463 0.0616566ZM43.6518 20.0302H43.7437L35.0767 4.97739L47.7413 5.03291L62.1375 30.2277L57.6314 38.0327L45.8226 38.0389L49.9399 30.9081L43.6518 20.0302ZM29.2438 4.90318L35.1536 15.1267L26.9712 15.1264L12.9627 39.4199L12.0072 41.0706L5.6619 29.9681L20.2831 4.90318H29.2438ZM23.5619 30.8543L29.8037 20.0297L37.9881 20.03L44.2772 30.9095L40.159 38.0421L27.7154 38.0488L23.5619 30.8543ZM14.8338 45.9906L17.2085 41.8725L20.7398 35.7729L24.8853 42.9535L37.327 42.9468L37.3069 42.9816L54.7996 43.0023L48.3932 53.987L19.3756 53.8572L14.8338 45.9906Z" fill="#333237"/>
<path d="M82.0711 50.3734V38.8959H77.829V37.6074H87.9388V38.8959H83.6965V50.3734H82.0711Z" fill="white"/>
<path d="M92.4557 50.5722C90.7773 50.5722 89.5219 50.1691 88.6893 49.363C87.8567 48.5569 87.4405 47.3146 87.4405 45.6362C87.4405 44.1297 87.7973 42.947 88.5109 42.0879C89.2377 41.2157 90.3809 40.7795 91.9403 40.7795C92.8653 40.7795 93.6252 40.9514 94.2199 41.2951C94.8278 41.6253 95.2772 42.0879 95.568 42.6826C95.8718 43.2641 96.0238 43.9249 96.0238 44.6649V46.4292H89.066C89.1188 47.1428 89.2708 47.7044 89.5218 48.1142C89.7862 48.5238 90.176 48.8211 90.6915 49.0062C91.22 49.1779 91.9139 49.2638 92.7728 49.2638C93.7375 49.2638 94.623 49.0987 95.4291 48.7683V50.037C95.0195 50.2088 94.5569 50.341 94.0415 50.4335C93.5393 50.526 93.0108 50.5722 92.4557 50.5722ZM89.066 45.2597H94.5767V44.4865C94.5767 43.72 94.3719 43.1319 93.9622 42.7223C93.5658 42.2994 92.905 42.0879 91.9799 42.0879C90.8566 42.0879 90.0902 42.3522 89.6804 42.8809C89.2708 43.4094 89.066 44.2024 89.066 45.2597Z" fill="white"/>
<path d="M102.847 50.5722C101.208 50.5722 99.992 50.1493 99.1992 49.3035C98.4062 48.4446 98.0097 47.2353 98.0097 45.6759C98.0097 44.024 98.459 42.795 99.3577 41.9889C100.256 41.1827 101.466 40.7795 102.985 40.7795C103.607 40.7795 104.122 40.8258 104.532 40.9184C104.941 40.9976 105.338 41.1298 105.721 41.3148V42.6033C105.007 42.2597 104.195 42.0879 103.283 42.0879C102.12 42.0879 101.221 42.3655 100.587 42.9206C99.9523 43.4623 99.6352 44.3808 99.6352 45.6759C99.6352 46.9181 99.9128 47.83 100.468 48.4115C101.023 48.9798 101.941 49.2638 103.223 49.2638C104.135 49.2638 104.974 49.0921 105.741 48.7485V50.0568C105.331 50.2287 104.888 50.3541 104.413 50.4335C103.95 50.526 103.428 50.5722 102.847 50.5722Z" fill="white"/>
<path d="M107.563 50.3734V37.0126H109.188V41.9883C109.625 41.6315 110.133 41.3408 110.715 41.1161C111.31 40.8913 111.997 40.779 112.776 40.779C113.913 40.779 114.765 41.0566 115.334 41.6117C115.902 42.1667 116.186 43.0389 116.186 44.2282V50.3734H114.561V44.2878C114.561 43.4684 114.376 42.9002 114.006 42.5829C113.649 42.2526 113.054 42.0874 112.221 42.0874C111.693 42.0874 111.144 42.2063 110.576 42.4442C110.021 42.6688 109.559 42.9663 109.188 43.3362V50.3734H107.563Z" fill="white"/>
<path d="M122.669 50.5721C121.347 50.5721 120.29 50.2813 119.497 49.6997C118.704 49.1183 118.308 48.3386 118.308 47.3606C118.308 46.462 118.585 45.6889 119.14 45.0413C119.695 44.3938 120.455 43.8189 121.42 43.3168C120.904 42.8014 120.468 42.319 120.112 41.8697C119.755 41.4204 119.576 40.8785 119.576 40.2442C119.576 39.4512 119.847 38.7838 120.389 38.2421C120.944 37.687 121.724 37.4095 122.728 37.4095C123.706 37.4095 124.466 37.6672 125.008 38.1825C125.549 38.6979 125.821 39.3851 125.821 40.2442C125.821 40.9578 125.629 41.5591 125.245 42.0481C124.862 42.5371 124.314 43.0326 123.6 43.5349L126.891 46.8849C127.115 46.3959 127.228 45.7748 127.228 45.0215V44.744H128.517V45.0215C128.517 45.537 128.457 46.0391 128.338 46.5281C128.22 47.0171 128.047 47.44 127.823 47.7968L129.607 49.6007L128.615 50.4927L127.029 48.9267C126.567 49.4949 125.966 49.9113 125.226 50.1756C124.486 50.4399 123.633 50.5721 122.669 50.5721ZM122.589 42.7419C123.211 42.3587 123.68 41.9953 123.997 41.6516C124.314 41.2948 124.473 40.8455 124.473 40.3037C124.473 39.8015 124.334 39.405 124.056 39.1143C123.792 38.8104 123.349 38.6584 122.728 38.6584C122.094 38.6584 121.631 38.817 121.341 39.1341C121.063 39.4512 120.924 39.8412 120.924 40.3037C120.924 40.7266 121.07 41.1164 121.36 41.4732C121.664 41.83 122.074 42.2529 122.589 42.7419ZM122.669 49.4024C123.435 49.4024 124.089 49.2901 124.631 49.0655C125.186 48.8275 125.655 48.4774 126.039 48.0149L122.411 44.3079C121.552 44.7044 120.911 45.1338 120.488 45.5964C120.079 46.0457 119.874 46.6206 119.874 47.3211C119.874 48.0082 120.138 48.5303 120.667 48.8871C121.195 49.2306 121.863 49.4024 122.669 49.4024Z" fill="#FB8351"/>
<path d="M78.4695 28.341V10.6649H83.6296V24.3885H91.5893V28.341H78.4695Z" fill="#FB8351"/>
<path d="M99.8905 28.6157C97.2922 28.6157 95.3708 28.0392 94.1266 26.8864C92.9007 25.7336 92.2877 24.0502 92.2877 21.8361C92.2877 19.6404 92.9098 17.9661 94.1541 16.8133C95.3984 15.6422 97.3105 15.0566 99.8905 15.0566C102.489 15.0566 104.41 15.6422 105.654 16.8133C106.917 17.9661 107.548 19.6404 107.548 21.8361C107.548 24.0502 106.926 25.7336 105.682 26.8864C104.438 28.0392 102.507 28.6157 99.8905 28.6157ZM99.8905 24.8553C100.732 24.8553 101.336 24.6175 101.702 24.1417C102.086 23.666 102.278 22.8974 102.278 21.8361C102.278 20.7932 102.086 20.0337 101.702 19.558C101.336 19.0639 100.732 18.8169 99.8905 18.8169C99.0671 18.8169 98.4724 19.0639 98.1064 19.558C97.7405 20.0337 97.5575 20.7932 97.5575 21.8361C97.5575 22.8974 97.7405 23.666 98.1064 24.1417C98.4724 24.6175 99.0671 24.8553 99.8905 24.8553Z" fill="#FB8351"/>
<path d="M115.191 33.1719C114.55 33.1719 113.855 33.1445 113.105 33.0895C112.354 33.053 111.641 32.9798 110.964 32.87C110.305 32.7603 109.756 32.6321 109.317 32.4857V29.192C109.811 29.3567 110.378 29.494 111.019 29.6037C111.677 29.7135 112.345 29.7959 113.022 29.8508C113.699 29.9056 114.321 29.9332 114.889 29.9332C115.859 29.9332 116.618 29.8782 117.167 29.7685C117.734 29.677 118.018 29.5031 118.018 29.2469C118.018 29.0274 117.926 28.881 117.743 28.8078C117.56 28.7528 117.213 28.7254 116.7 28.7254H113.269C111.934 28.7254 110.9 28.515 110.168 28.0941C109.454 27.655 109.097 27.0054 109.097 26.1454C109.097 24.9376 109.765 24.096 111.101 23.6203C110.351 23.2359 109.802 22.7511 109.454 22.1655C109.106 21.58 108.933 20.8389 108.933 19.9423C108.933 18.2588 109.5 17.0237 110.634 16.2368C111.787 15.4501 113.443 15.0566 115.602 15.0566C116.06 15.0566 116.572 15.0932 117.139 15.1664C117.707 15.2213 118.118 15.2763 118.374 15.3311H123.48L123.37 18.4601H121.641C121.97 18.881 122.135 19.3933 122.135 19.9972C122.135 21.333 121.741 22.3943 120.955 23.1811C120.186 23.9496 118.969 24.3339 117.304 24.3339C117.066 24.3339 116.81 24.3248 116.535 24.3064C116.261 24.2698 116.005 24.2424 115.767 24.224C115.364 24.2607 115.017 24.3339 114.724 24.4437C114.431 24.5534 114.285 24.7364 114.285 24.9926C114.285 25.1756 114.367 25.3037 114.532 25.3768C114.697 25.4318 114.925 25.4592 115.218 25.4592H118.21C119.546 25.4592 120.598 25.7703 121.366 26.3924C122.135 27.0146 122.519 27.9294 122.519 29.1372C122.519 30.418 121.924 31.4061 120.735 32.1014C119.546 32.8151 117.698 33.1719 115.191 33.1719ZM115.63 21.5068C116.435 21.5068 116.993 21.3695 117.304 21.0951C117.615 20.8206 117.771 20.3632 117.771 19.7227C117.771 19.0822 117.615 18.6156 117.304 18.3229C116.993 18.0302 116.435 17.8837 115.63 17.8837C114.88 17.8837 114.331 18.0302 113.983 18.3229C113.654 18.5974 113.489 19.0639 113.489 19.7227C113.489 20.3449 113.644 20.8023 113.955 21.0951C114.285 21.3695 114.843 21.5068 115.63 21.5068Z" fill="#FB8351"/>
<path d="M131.895 28.6157C129.296 28.6157 127.375 28.0392 126.13 26.8864C124.904 25.7336 124.291 24.0502 124.291 21.8361C124.291 19.6404 124.914 17.9661 126.158 16.8133C127.402 15.6422 129.315 15.0566 131.895 15.0566C134.493 15.0566 136.414 15.6422 137.658 16.8133C138.922 17.9661 139.552 19.6404 139.552 21.8361C139.552 24.0502 138.93 25.7336 137.686 26.8864C136.441 28.0392 134.511 28.6157 131.895 28.6157ZM131.895 24.8553C132.736 24.8553 133.34 24.6175 133.706 24.1417C134.09 23.666 134.283 22.8974 134.283 21.8361C134.283 20.7932 134.09 20.0337 133.706 19.558C133.34 19.0639 132.736 18.8169 131.895 18.8169C131.072 18.8169 130.476 19.0639 130.11 19.558C129.744 20.0337 129.562 20.7932 129.562 21.8361C129.562 22.8974 129.744 23.666 130.11 24.1417C130.476 24.6175 131.072 24.8553 131.895 24.8553Z" fill="#FB8351"/>
<path d="M141.82 13.6014V9.86853H147.392V13.6014H141.82ZM142.231 28.3406V19.0909H140.339L140.777 15.3306H147.392V28.3406H142.231Z" fill="white"/>
<path d="M149.867 34.2697V15.3311H154.342L154.588 16.374C155.118 15.9532 155.695 15.633 156.317 15.4135C156.958 15.1755 157.698 15.0566 158.541 15.0566C160.48 15.0566 161.972 15.5506 163.015 16.5387C164.075 17.5085 164.606 19.1646 164.606 21.5067C164.606 23.8307 164.048 25.5963 162.932 26.8041C161.816 28.0118 160.279 28.6155 158.321 28.6155C157.022 28.6155 155.924 28.3686 155.027 27.8745V34.2697H149.867ZM157.003 24.8553C157.754 24.8553 158.331 24.59 158.733 24.0593C159.136 23.5287 159.337 22.7053 159.337 21.589C159.337 20.5095 159.144 19.7776 158.76 19.3933C158.394 19.009 157.827 18.8169 157.058 18.8169C156.29 18.8169 155.613 19.0731 155.027 19.5854V24.1966C155.321 24.4161 155.613 24.5808 155.906 24.6906C156.198 24.8003 156.564 24.8553 157.003 24.8553Z" fill="white"/>
<path d="M171.483 28.6155C170.367 28.6155 169.315 28.5333 168.327 28.3686C167.357 28.2222 166.589 28.0301 166.021 27.7921V24.0867C166.661 24.3796 167.421 24.6082 168.299 24.7729C169.196 24.9376 169.956 25.02 170.576 25.02C171.236 25.02 171.73 25.0017 172.059 24.965C172.408 24.9285 172.58 24.7729 172.58 24.4985C172.58 24.1875 172.279 23.9496 171.675 23.7848C171.072 23.6201 170.312 23.3822 169.398 23.0712C168.207 22.6503 167.319 22.1564 166.734 21.589C166.149 21.0218 165.857 20.1985 165.857 19.1187C165.857 17.8197 166.369 16.8224 167.394 16.1271C168.418 15.4135 170.028 15.0566 172.223 15.0566C173.066 15.0566 173.935 15.1206 174.831 15.2487C175.727 15.3768 176.432 15.5232 176.945 15.6879V19.311C176.395 19.0731 175.792 18.8992 175.134 18.7895C174.493 18.6796 173.908 18.6248 173.377 18.6248C172.792 18.6248 172.269 18.6522 171.812 18.7071C171.354 18.7619 171.126 18.9175 171.126 19.1737C171.126 19.4664 171.383 19.6769 171.895 19.805C172.425 19.9331 173.13 20.1344 174.008 20.4088C174.997 20.7016 175.764 21.0218 176.314 21.3695C176.881 21.7172 177.275 22.1379 177.494 22.6321C177.731 23.1262 177.851 23.739 177.851 24.4711C177.851 25.7886 177.31 26.8132 176.231 27.5451C175.169 28.2587 173.587 28.6155 171.483 28.6155Z" fill="white"/>
<path d="M184.501 28.615C182.982 28.615 181.793 28.1852 180.933 27.3251C180.074 26.465 179.644 25.2025 179.644 23.5373V15.3306H184.803V23.1257C184.803 24.2601 185.38 24.8274 186.532 24.8274C186.953 24.8274 187.365 24.7359 187.768 24.553C188.17 24.37 188.49 24.1412 188.728 23.8667V15.3306H193.888V28.3406H189.058L188.921 27.3525C188.409 27.7184 187.776 28.0205 187.027 28.2582C186.295 28.4962 185.453 28.615 184.501 28.615Z" fill="white"/>
<path d="M196.346 28.3411V15.3311H201.121L201.258 16.374C201.826 15.9898 202.457 15.6788 203.152 15.4409C203.866 15.1847 204.644 15.0566 205.486 15.0566C206.326 15.0566 206.986 15.1755 207.461 15.4135C207.938 15.6512 208.322 15.9989 208.614 16.4563C209.199 16.0356 209.859 15.697 210.591 15.4409C211.34 15.1847 212.219 15.0566 213.226 15.0566C214.744 15.0566 215.86 15.4591 216.574 16.2642C217.288 17.0511 217.644 18.2588 217.644 19.8873V28.3411H212.566V20.4912C212.566 19.9056 212.448 19.494 212.21 19.256C211.973 18.9998 211.579 18.8718 211.029 18.8718C210.316 18.8718 209.73 19.128 209.274 19.6403C209.309 19.8782 209.328 20.107 209.328 20.3265C209.328 20.5277 209.328 20.7565 209.328 21.0127V28.3411H204.552V20.4088C204.552 19.8782 204.461 19.494 204.278 19.256C204.094 18.9998 203.747 18.8718 203.235 18.8718C202.887 18.8718 202.548 18.9633 202.219 19.1463C201.889 19.3293 201.596 19.5488 201.341 19.805V28.3411H196.346Z" fill="white"/>
<path d="M138.011 50.736C136.636 50.736 135.493 50.4782 134.581 49.9628C133.683 49.4342 133.01 48.7007 132.56 47.7624C132.11 46.811 131.886 45.7009 131.886 44.4322C131.886 43.0446 132.098 41.8353 132.52 40.8046C132.943 39.7738 133.603 38.9808 134.503 38.4258C135.402 37.8576 136.563 37.5734 137.991 37.5734C138.731 37.5734 139.398 37.6262 139.993 37.732C140.601 37.8378 141.169 37.983 141.699 38.1682V39.5954C141.169 39.3972 140.608 39.2452 140.013 39.1394C139.418 39.0205 138.791 38.961 138.131 38.961C136.98 38.961 136.068 39.1791 135.395 39.6152C134.721 40.0513 134.238 40.679 133.947 41.4984C133.656 42.3177 133.511 43.2957 133.511 44.4322C133.511 46.0048 133.882 47.2206 134.621 48.0797C135.375 48.9255 136.558 49.3484 138.169 49.3484C138.764 49.3484 139.365 49.302 139.973 49.2095C140.594 49.117 141.169 48.9717 141.699 48.7735V50.2206C141.182 50.3791 140.621 50.5046 140.013 50.5972C139.418 50.6897 138.751 50.736 138.011 50.736Z" fill="white"/>
<path d="M148.373 50.7354C146.734 50.7354 145.538 50.3191 144.785 49.4866C144.045 48.6408 143.676 47.4249 143.676 45.8391C143.676 44.2664 144.053 43.0572 144.805 42.2114C145.558 41.3656 146.749 40.9427 148.373 40.9427C149.999 40.9427 151.189 41.3656 151.941 42.2114C152.695 43.0572 153.071 44.2664 153.071 45.8391C153.071 47.4249 152.702 48.6408 151.961 49.4866C151.222 50.3191 150.026 50.7354 148.373 50.7354ZM148.373 49.3478C149.496 49.3478 150.29 49.0702 150.752 48.5152C151.215 47.947 151.446 47.0549 151.446 45.8391C151.446 44.6232 151.209 43.7379 150.732 43.1828C150.27 42.6145 149.483 42.3303 148.373 42.3303C147.264 42.3303 146.47 42.6145 145.995 43.1828C145.533 43.7379 145.301 44.6232 145.301 45.8391C145.301 47.0549 145.533 47.947 145.995 48.5152C146.458 49.0702 147.25 49.3478 148.373 49.3478Z" fill="white"/>
<path d="M155.058 50.5376V49.1699H156.525V50.5376H155.058Z" fill="white"/>
</svg>

<svg width="218" height="59" fill="none" xmlns="http://www.w3.org/2000/svg"><path d="M17.957 56.302l-5.96-10.321 8.746-15.107 5.557 9.627 32.807-.018-9.31 15.962-31.84-.143z" fill="#FFAD64"/><path d="M64.965 30.235l-5.96 10.321-17.454-.02 5.558-9.627L30.69 2.507l18.478.081 15.797 27.647z" fill="#ADD4D3"/><path d="M18.875 2.451h11.918l8.71 15.127H28.387L12 45.998 2.831 29.955 18.875 2.451z" fill="#FB8351"/><path fill-rule="evenodd" clip-rule="evenodd" d="M32.246.062L32.211 0H17.467L0 29.943l11.99 20.98.015-.026 4.532 7.85 34.665.156L63.376 38.03h-.081l4.497-7.79L50.594.142 32.246.062zM43.652 20.03h.092L35.077 4.977l12.664.056 14.397 25.195-4.507 7.805-11.808.006 4.117-7.13-6.288-10.879zM29.244 4.903l5.91 10.224H26.97L12.963 39.42l-.956 1.65-6.345-11.102L20.283 4.903h8.96zm-5.682 25.951l6.242-10.824h8.184l6.29 10.88-4.119 7.132-12.444.007-4.153-7.195zm-8.728 15.137l2.375-4.118 3.53-6.1 4.146 7.18 12.442-.006-.02.035 17.493.02-6.407 10.985-29.017-.13-4.542-7.866z" fill="#333237"/><path d="M82.071 50.373V38.896H77.83v-1.289h10.11v1.289h-4.242v11.477H82.07zm10.385.199c-1.679 0-2.934-.403-3.767-1.209-.832-.806-1.248-2.048-1.248-3.727 0-1.506.356-2.689 1.07-3.548.727-.872 1.87-1.309 3.43-1.309.924 0 1.684.172 2.279.516.608.33 1.057.793 1.348 1.388.304.581.456 1.242.456 1.982v1.764h-6.958c.053.714.205 1.275.456 1.685.264.41.654.707 1.17.892.528.172 1.222.258 2.08.258.965 0 1.851-.165 2.657-.496v1.269a6.6 6.6 0 01-1.388.397 8.744 8.744 0 01-1.585.138zm-3.39-5.312h5.51v-.773c0-.767-.204-1.355-.614-1.765-.396-.423-1.057-.634-1.982-.634-1.123 0-1.89.264-2.3.793-.41.528-.614 1.321-.614 2.379zm13.781 5.312c-1.639 0-2.855-.423-3.648-1.269-.793-.858-1.19-2.068-1.19-3.627 0-1.652.45-2.881 1.349-3.687.898-.806 2.108-1.21 3.627-1.21.622 0 1.137.047 1.547.14.409.079.806.21 1.189.396v1.288c-.714-.343-1.526-.515-2.438-.515-1.163 0-2.062.277-2.696.833-.635.541-.952 1.46-.952 2.755 0 1.242.278 2.154.833 2.735.555.569 1.473.853 2.755.853.912 0 1.751-.172 2.518-.516v1.309c-.41.172-.853.297-1.328.377a8.031 8.031 0 01-1.566.138zm4.716-.199v-13.36h1.625v4.975a5.555 5.555 0 011.527-.872c.595-.225 1.282-.337 2.061-.337 1.137 0 1.989.278 2.558.833.568.555.852 1.427.852 2.616v6.145h-1.625v-6.085c0-.82-.185-1.388-.555-1.705-.357-.33-.952-.496-1.785-.496-.528 0-1.077.12-1.645.357a4.13 4.13 0 00-1.388.892v7.037h-1.625z" fill="#fff"/><path d="M122.669 50.572c-1.322 0-2.379-.29-3.172-.872-.793-.582-1.189-1.361-1.189-2.34 0-.898.277-1.671.832-2.319.555-.647 1.315-1.222 2.28-1.724a17.006 17.006 0 01-1.308-1.447c-.357-.45-.536-.991-.536-1.626 0-.793.271-1.46.813-2.002.555-.555 1.335-.832 2.339-.832.978 0 1.738.257 2.28.773.541.515.813 1.202.813 2.061 0 .714-.192 1.315-.576 1.804-.383.49-.931.985-1.645 1.487l3.291 3.35c.224-.49.337-1.11.337-1.863v-.278h1.289v.278c0 .515-.06 1.017-.179 1.506a4.244 4.244 0 01-.515 1.269l1.784 1.804-.992.892-1.586-1.566c-.462.568-1.063.984-1.803 1.249-.74.264-1.593.396-2.557.396zm-.08-7.83c.622-.383 1.091-.747 1.408-1.09.317-.357.476-.806.476-1.348 0-.503-.139-.899-.417-1.19-.264-.304-.707-.456-1.328-.456-.634 0-1.097.159-1.387.476-.278.317-.417.707-.417 1.17 0 .423.146.812.436 1.17.304.356.714.779 1.229 1.268zm.08 6.66c.766 0 1.42-.112 1.962-.337a3.698 3.698 0 001.408-1.05l-3.628-3.707c-.859.396-1.5.826-1.923 1.288-.409.45-.614 1.025-.614 1.725 0 .687.264 1.21.793 1.566.528.344 1.196.515 2.002.515zM78.47 28.341V10.665h5.16v13.724h7.96v3.952H78.47zm21.42.275c-2.598 0-4.52-.577-5.763-1.73-1.226-1.152-1.84-2.836-1.84-5.05 0-2.196.623-3.87 1.867-5.023 1.244-1.17 3.157-1.756 5.737-1.756 2.598 0 4.519.585 5.763 1.756 1.263 1.153 1.894 2.827 1.894 5.023 0 2.214-.622 3.898-1.866 5.05-1.244 1.153-3.175 1.73-5.791 1.73zm0-3.76c.842 0 1.446-.239 1.812-.714.384-.476.576-1.245.576-2.306 0-1.043-.192-1.802-.576-2.278-.366-.494-.97-.741-1.811-.741-.824 0-1.419.247-1.785.741-.365.476-.548 1.235-.548 2.278 0 1.061.182 1.83.548 2.306.366.476.961.713 1.785.713zm15.301 8.316a28.63 28.63 0 01-2.086-.082 19.194 19.194 0 01-2.141-.22 11.045 11.045 0 01-1.647-.384v-3.294a11.59 11.59 0 001.702.412c.658.11 1.326.192 2.003.247a23.17 23.17 0 001.867.082c.97 0 1.729-.055 2.278-.165.567-.091.851-.265.851-.521 0-.22-.092-.366-.275-.44-.183-.054-.53-.082-1.043-.082h-3.431c-1.335 0-2.369-.21-3.101-.63-.714-.44-1.071-1.09-1.071-1.95 0-1.207.668-2.049 2.004-2.525-.75-.384-1.299-.869-1.647-1.454-.348-.586-.521-1.327-.521-2.224 0-1.683.567-2.918 1.701-3.705 1.153-.787 2.809-1.18 4.968-1.18.458 0 .97.036 1.537.11.568.054.979.11 1.235.164h5.106l-.11 3.13h-1.729c.329.42.494.932.494 1.536 0 1.336-.394 2.397-1.18 3.184-.769.769-1.986 1.153-3.651 1.153-.238 0-.494-.01-.769-.028a14.11 14.11 0 00-.768-.082 4.02 4.02 0 00-1.043.22c-.293.11-.439.292-.439.549 0 .183.082.31.247.384.165.055.393.082.686.082h2.992c1.336 0 2.388.311 3.156.933.769.623 1.153 1.537 1.153 2.745 0 1.281-.595 2.27-1.784 2.964-1.189.714-3.037 1.07-5.544 1.07zm.439-11.665c.805 0 1.363-.138 1.674-.412.311-.274.467-.732.467-1.372 0-.64-.156-1.107-.467-1.4-.311-.293-.869-.44-1.674-.44-.75 0-1.299.147-1.647.44-.329.274-.494.74-.494 1.4 0 .622.155 1.08.466 1.372.33.274.888.412 1.675.412zm16.265 7.109c-2.599 0-4.52-.577-5.765-1.73-1.226-1.152-1.839-2.836-1.839-5.05 0-2.196.623-3.87 1.867-5.023 1.244-1.17 3.157-1.756 5.737-1.756 2.598 0 4.519.585 5.763 1.756 1.264 1.153 1.894 2.827 1.894 5.023 0 2.214-.622 3.898-1.866 5.05-1.245 1.153-3.175 1.73-5.791 1.73zm0-3.76c.841 0 1.445-.239 1.811-.714.384-.476.577-1.245.577-2.306 0-1.043-.193-1.802-.577-2.278-.366-.494-.97-.741-1.811-.741-.823 0-1.419.247-1.785.741-.366.476-.548 1.235-.548 2.278 0 1.061.182 1.83.548 2.306.366.476.962.713 1.785.713z" fill="#FB8351"/><path d="M141.82 13.601V9.87h5.572v3.73h-5.572zm.411 14.74v-9.25h-1.892l.438-3.76h6.615v13.01h-5.161zm7.636 5.929V15.33h4.475l.246 1.043a5.951 5.951 0 011.729-.96c.641-.239 1.381-.357 2.224-.357 1.939 0 3.431.494 4.474 1.482 1.06.97 1.591 2.626 1.591 4.968 0 2.324-.558 4.09-1.674 5.297-1.116 1.208-2.653 1.812-4.611 1.812-1.299 0-2.397-.247-3.294-.741v6.395h-5.16zm7.136-9.415c.751 0 1.328-.265 1.73-.796.403-.53.604-1.354.604-2.47 0-1.08-.193-1.811-.577-2.196-.366-.384-.933-.576-1.702-.576-.768 0-1.445.256-2.031.768v4.612c.294.22.586.384.879.494.292.11.658.164 1.097.164zm14.48 3.761c-1.116 0-2.168-.083-3.156-.247-.97-.147-1.738-.339-2.306-.577v-3.705c.64.293 1.4.521 2.278.686.897.165 1.657.247 2.277.247.66 0 1.154-.018 1.483-.055.349-.037.521-.192.521-.466 0-.311-.301-.55-.905-.714a40.272 40.272 0 01-2.277-.714c-1.191-.42-2.079-.915-2.664-1.482s-.877-1.39-.877-2.47c0-1.3.512-2.297 1.537-2.992 1.024-.713 2.634-1.07 4.829-1.07.843 0 1.712.064 2.608.192.896.128 1.601.274 2.114.439v3.623a7.757 7.757 0 00-1.811-.521 10.46 10.46 0 00-1.757-.165c-.585 0-1.108.027-1.565.082-.458.055-.686.21-.686.467 0 .292.257.503.769.631.53.128 1.235.33 2.113.604.989.293 1.756.613 2.306.96.567.348.961.769 1.18 1.263.237.494.357 1.107.357 1.84 0 1.317-.541 2.341-1.62 3.073-1.062.714-2.644 1.07-4.748 1.07zm13.018-.001c-1.519 0-2.708-.43-3.568-1.29-.859-.86-1.289-2.122-1.289-3.788v-8.206h5.159v7.795c0 1.134.577 1.701 1.729 1.701a2.96 2.96 0 001.236-.274c.402-.183.722-.412.96-.686V15.33h5.16v13.01h-4.83l-.137-.989c-.512.366-1.145.668-1.894.906-.732.238-1.574.357-2.526.357zm11.845-.274v-13.01h4.775l.137 1.043a7.964 7.964 0 011.894-.933 6.863 6.863 0 012.334-.384c.84 0 1.5.118 1.975.357a2.86 2.86 0 011.153 1.042 7.747 7.747 0 011.977-1.015c.749-.256 1.628-.384 2.635-.384 1.518 0 2.634.402 3.348 1.207.714.787 1.07 1.995 1.07 3.623v8.454h-5.078v-7.85c0-.585-.118-.997-.356-1.235-.237-.256-.631-.384-1.181-.384-.713 0-1.299.256-1.755.768.035.238.054.467.054.686v8.015h-4.776V20.41c0-.53-.091-.915-.274-1.153-.184-.256-.531-.384-1.043-.384-.348 0-.687.091-1.016.274-.33.183-.623.403-.878.659v8.536h-4.995zm-58.335 22.395c-1.375 0-2.518-.258-3.43-.773a5.015 5.015 0 01-2.021-2.2c-.45-.952-.674-2.062-.674-3.33 0-1.388.212-2.598.634-3.628.423-1.031 1.083-1.824 1.983-2.38.899-.567 2.06-.852 3.488-.852.74 0 1.407.053 2.002.159a10.75 10.75 0 011.706.436v1.427a9.595 9.595 0 00-1.686-.456 9.587 9.587 0 00-1.882-.178c-1.151 0-2.063.218-2.736.654-.674.436-1.157 1.064-1.448 1.883-.291.82-.436 1.798-.436 2.934 0 1.573.371 2.789 1.11 3.648.754.846 1.937 1.268 3.548 1.268.595 0 1.196-.046 1.804-.139a8.484 8.484 0 001.726-.436v1.448c-.517.158-1.078.284-1.686.376a13.04 13.04 0 01-2.002.139zm10.362-.001c-1.639 0-2.835-.416-3.588-1.248-.74-.846-1.109-2.062-1.109-3.648 0-1.573.377-2.782 1.129-3.628.753-.845 1.944-1.268 3.568-1.268 1.626 0 2.816.423 3.568 1.268.754.846 1.13 2.055 1.13 3.628 0 1.586-.369 2.802-1.11 3.648-.739.832-1.935 1.248-3.588 1.248zm0-1.387c1.123 0 1.917-.278 2.379-.833.463-.568.694-1.46.694-2.676 0-1.216-.237-2.101-.714-2.656-.462-.569-1.249-.853-2.359-.853-1.109 0-1.903.285-2.378.853-.462.555-.694 1.44-.694 2.656 0 1.216.232 2.108.694 2.676.463.555 1.255.833 2.378.833zm6.685 1.19V49.17h1.467v1.368h-1.467z" fill="#fff"/></svg>
